svgs/light/wreath.svg

<svg xmlns="http://www.w3.org/2000/svg" viewBox="0 0 448 512"><!--! Font Awesome Pro 6.3.0 by @fontawesome - https://fontawesome.com License - https://fontawesome.com/license (Commercial License) Copyright 2023 Fonticons, Inc. --><path d="M281.9 385.3c-.375 .0938-.75 .2187-1.125 .375L224 406.9l-57.75-21.63C157.1 382.5 147 384.2 139.4 389.9C132.2 395.2 128 403.3 128 412v71.89c0 8.656 4.094 16.69 11.22 22c7.625 5.721 17.69 7.533 28 4.408L224 489.1l57.75 21.63C284.7 511.6 287.6 512 290.6 512c6.438 0 12.81-2.031 18.03-5.908C315.8 500.7 320 492.7 320 483.9v-71.89c0-8.658-4.094-16.69-11.22-22C301.2 384.3 291.1 382.5 281.9 385.3zM288 478.9l-58.38-21.88c-3.626-1.375-7.626-1.375-11.25 0L160 479.7V417.1l58.38 21.88c3.624 1.375 7.624 1.375 11.25 0L288 417.1V478.9zM448 221.9c0-15.44-5.938-30.01-16.31-41.07c5.344-14.1 5.188-29.82-.8438-44.24c-6.062-14.44-17.38-25.69-31.47-31.87c-.3438-15.22-6.281-29.6-17-40.23c-10.72-10.65-25.19-16.56-40.47-16.9c-6.219-14.17-17.59-25.38-32.09-31.28c-14.28-5.965-30.16-6.121-44.44-.7773c-22.25-20.75-60.47-20.78-82.72-.0313c-14.28-5.342-30.09-5.188-44.5 .8086c-14.56 6.088-25.84 17.33-32 31.28c-15.28 .373-29.72 6.275-40.31 16.8C54.97 75.1 48.97 89.51 48.69 104.8C34.5 110.9 23.22 122.2 17.28 136.6c-6 14.2-6.156 29.92-.8125 44.17C5.999 191.8 0 206.4 0 221.9c0 15.41 5.938 29.98 16.31 41.04C10.97 277.1 11.13 292.8 17.16 307.2c6.031 14.26 17.34 25.41 31.5 31.53c.2813 15.44 6.281 29.98 17.16 40.66C68.94 382.5 73 384 77.06 384c4.125 0 8.25-1.584 11.41-4.723c6.188-6.275 6.125-16.34-.1562-22.52c-6.594-6.43-9.094-15.9-6.906-26c.9375-4.256 .0938-8.668-2.344-12.27S72.81 312.5 68.53 311.7C58.41 309.9 50.44 303.8 46.69 294.9C42.94 286.1 44 276 49.47 268.1c2.469-3.512 3.375-7.859 2.562-12.08c-.8438-4.195-3.312-7.891-6.906-10.25C36.91 240.4 32 231.5 32 221.9C32 212.3 36.91 203.5 45.16 198.1c3.594-2.299 6.094-5.965 6.969-10.16c.8438-4.162-.0313-8.512-2.406-12.05C44.19 167.7 43.09 157.7 46.84 148.8c3.688-8.947 11.78-15.28 21.69-17.02c4.281-.7461 8.094-3.199 10.53-6.803s3.281-8.014 2.344-12.27C79.25 102.9 81.75 93.52 88.38 87.03c6.531-6.492 16.09-8.885 26.03-6.896c4.281 .8398 8.719-.0313 12.31-2.422c3.594-2.455 6.031-6.244 6.75-10.53C135.1 57.52 141.5 49.47 150.6 45.68c8.875-3.697 18.97-2.609 27.03 2.857c3.531 2.393 7.875 3.355 12.12 2.455C193.9 50.18 197.7 47.7 200 44.13c10.75-16.28 37.25-16.28 48 0c2.344 3.541 6.031 6.025 10.22 6.865c4.094 .8379 8.531-.0313 12.09-2.393c8.156-5.498 18.34-6.617 27.25-2.857c8.969 3.635 15.38 11.71 17.12 21.56c.75 4.256 3.188 8.014 6.781 10.44c3.625 2.422 8.031 3.262 12.28 2.391c9.969-2.174 19.5 .4355 26 6.928c6.531 6.43 9.031 15.84 6.906 25.75c-.9062 4.225-.0313 8.637 2.406 12.21c2.406 3.604 6.219 6.025 10.5 6.771c9.844 1.74 17.97 8.139 21.75 17.09c3.75 8.945 2.688 18.98-2.781 26.87c-2.469 3.51-3.375 7.889-2.562 12.08c.8438 4.193 3.344 7.889 6.938 10.25C411.1 203.4 416 212.3 416 221.9c0 9.568-4.812 18.45-12.91 23.76c-3.594 2.361-6.062 6.027-6.906 10.22c-.8125 4.193 .0938 8.543 2.531 12.08c5.531 7.953 6.625 18.02 2.969 26.81c-3.75 8.916-11.72 15-21.84 16.78c-4.312 .7129-8.125 3.168-10.56 6.771s-3.282 8.014-2.344 12.27c2.188 10.03-.3438 19.54-6.969 26.06c-6.25 6.213-6.25 16.28-.0313 22.52c6.25 6.213 16.41 6.182 22.66 .0313c10.81-10.75 16.78-25.25 17.06-40.57c14.22-6.121 25.53-17.3 31.56-31.62c5.969-14.32 6.094-30.07 .6875-44.23C442.2 251.8 448 237.3 448 221.9zM309.8 195.4c-.6875-2.219-.8438-4.688-1.094-7.125c-.6875-6.625-1.542-14.69-6.761-22.22c-5.375-7.654-13.21-11.49-18.93-14.21c-2.062-.9687-4.156-1.844-5.844-3.092c-1.156-.875-2.875-2.844-4.531-4.781c-4.188-4.812-9.875-11.4-18.75-14.4c-8.688-2.938-16.75-1.156-23.16 .25c-5 1.062-8.375 1.062-13.38 0C210.8 128.4 202.8 126.9 194.2 129.7C185.3 132.7 179.6 139.2 175.4 143.1C173.8 145.9 172 147.9 170.8 148.8C169.6 149.8 167.2 150.9 164.9 151.1C159.2 154.6 151.5 158.4 146.1 166C140.1 173.5 140 181.7 139.3 188.3c-.25 2.438-.4062 4.906-1.062 7c-.6562 2.029-1.844 3.967-2.969 5.998C132.2 206.9 128.1 214.5 128.1 223.1c0 9.436 4.112 17.12 7.205 22.71c1.125 2.031 2.312 4 2.938 5.906c.6875 2.219 .8438 4.688 1.094 7.125c.6875 6.623 1.562 14.84 6.781 22.37C151.5 289.8 159.3 293.4 165 296.2C167.1 297.1 169.2 298 170.9 299.3c1.156 .875 2.875 2.844 4.531 4.781c4.188 4.811 9.875 11.4 18.75 14.4C197.6 319.6 200.1 320 204.1 320c4.844 0 9.312-.9687 13.19-1.812c5-1.062 8.375-1.062 13.38 0c6.469 1.406 14.5 3.094 23.19 .2187c8.844-2.969 14.53-9.562 18.72-14.37c1.656-1.938 3.375-3.906 4.594-4.844c1.25-.9375 3.625-2.062 5.938-3.156c5.656-2.656 13.4-6.416 18.8-14.1c5.156-7.467 6.042-15.58 6.73-22.2c.25-2.406 .4062-4.844 1.094-7.062c.6562-2.031 1.844-3.938 2.938-5.969c3.094-5.592 7.268-13.27 7.268-22.71c0-9.469-4.174-17.1-7.268-22.69C311.6 199.3 310.4 197.3 309.8 195.4zM279.2 243.1C279.2 243.1 279.2 243 279.2 243.1c-2.352 7.57-2.566 18.69-3.453 20.53c-2 2.24-10.53 4.494-17.81 10c-6.408 4.83-11.64 12.32-13.84 14.34c-1.438 .4687-4.5-.5938-6.656-1.062c-7.938-1.688-18.94-1.688-26.88 0c-2.219 .5-5.531 1.219-6 1.281c-2.645-1.443-7.248-9.088-14.53-14.59C183.7 268.9 173.8 265.4 172.4 263.9C171.2 261.7 171.3 251.1 168.8 243C166.4 235.4 160.1 226.4 160 224c0-2.434 6.275-11.05 8.812-19.15C171.2 197.3 171.4 186.2 172.3 184.4c2-2.238 10.53-4.492 17.81-9.998c6.408-4.83 11.8-12.34 14-14.36c.0938-.0313-.0938 0 0 0c1.344 0 4.469 .6406 6.5 1.078c7.938 1.688 18.94 1.688 26.88 0c2.219-.5 5.531-1.219 6-1.281c2.645 1.441 7.248 9.088 14.53 14.59c6.318 4.68 16.25 8.234 17.59 9.717c1.203 2.215 1.168 12.78 3.656 20.84C281.7 212.8 288 221.6 288 224C287.9 226.4 281.6 235.5 279.2 243.1z"/></svg>

<svg xmlns="http://www.w3.org/2000/svg" viewBox="0 0 448 512"><!-- Font Awesome Pro 6.0.0-alpha2 by @fontawesome - https://fontawesome.com License - https://fontawesome.com/license (Commercial License) --><path d="M281.906 385.262C281.531 385.355 281.156 385.48 280.781 385.637L224 406.922L166.25 385.293C157.062 382.543 147 384.23 139.375 389.887C132.156 395.232 128 403.326 128 412.047V483.934C128 492.59 132.094 500.623 139.219 505.936C146.844 511.656 156.906 513.469 167.219 510.344L224 489.059L281.75 510.688C284.656 511.562 287.625 512 290.594 512C297.031 512 303.406 509.969 308.625 506.092C315.844 500.748 320 492.652 320 483.934V412.047C320 403.389 315.906 395.357 308.781 390.043C301.188 384.324 291.094 382.512 281.906 385.262ZM288 478.869L229.625 456.99C225.999 455.615 221.999 455.615 218.375 456.99L160 479.713V417.109L218.375 438.988C221.999 440.363 225.999 440.363 229.625 438.988L288 417.109V478.869ZM448 221.938C448 206.498 442.062 191.93 431.688 180.871C437.031 166.768 436.875 151.049 430.844 136.635C424.781 122.191 413.469 110.945 399.375 104.764C399.031 89.543 393.094 75.16 382.375 64.535C371.656 53.881 357.188 47.979 341.906 47.637C335.688 33.471 324.313 22.258 309.813 16.355C295.531 10.391 279.656 10.234 265.375 15.578C243.125 -5.172 204.906 -5.203 182.656 15.547C168.375 10.205 152.563 10.359 138.156 16.355C123.594 22.443 112.313 33.689 106.156 47.637C90.875 48.01 76.438 53.912 65.844 64.441C54.969 75.098 48.969 89.512 48.688 104.764C34.5 110.945 23.219 122.221 17.281 136.604C11.281 150.801 11.125 166.52 16.469 180.777C5.999 191.805 0 206.438 0 221.938C0 237.346 5.938 251.914 16.312 262.973C10.969 277.076 11.125 292.826 17.156 307.24C23.188 321.498 34.5 332.65 48.656 338.77C48.938 354.209 54.938 368.746 65.812 379.434C68.938 382.477 73 384 77.062 384C81.187 384 85.312 382.416 88.469 379.277C94.656 373.002 94.594 362.938 88.312 356.756C81.719 350.326 79.219 340.852 81.406 330.756C82.344 326.5 81.5 322.088 79.062 318.484S72.812 312.459 68.531 311.713C58.406 309.943 50.438 303.822 46.688 294.939C42.938 286.055 44 276.02 49.469 268.131C51.937 264.619 52.844 260.271 52.031 256.047C51.187 251.852 48.719 248.156 45.125 245.795C36.906 240.42 32 231.506 32 221.938C32 212.338 36.906 203.455 45.156 198.111C48.75 195.812 51.25 192.146 52.125 187.953C52.969 183.791 52.094 179.441 49.719 175.9C44.188 167.73 43.094 157.666 46.844 148.812C50.531 139.865 58.625 133.529 68.531 131.789C72.813 131.043 76.625 128.59 79.063 124.986S82.344 116.973 81.406 112.717C79.25 102.869 81.75 93.518 88.375 87.025C94.906 80.533 104.469 78.141 114.406 80.129C118.688 80.969 123.125 80.098 126.719 77.707C130.313 75.252 132.75 71.463 133.469 67.176C135.094 57.516 141.5 49.469 150.562 45.68C159.438 41.982 169.531 43.07 177.594 48.537C181.125 50.93 185.469 51.893 189.719 50.992C193.938 50.184 197.656 47.699 200 44.127C210.75 27.848 237.25 27.848 248 44.127C250.344 47.668 254.031 50.152 258.219 50.992C262.312 51.83 266.75 50.961 270.312 48.6C278.469 43.102 288.656 41.982 297.562 45.742C306.531 49.377 312.938 57.453 314.687 67.301C315.437 71.557 317.875 75.314 321.469 77.738C325.094 80.16 329.5 81 333.75 80.129C343.719 77.955 353.25 80.564 359.75 87.057C366.281 93.486 368.781 102.9 366.656 112.809C365.75 117.033 366.625 121.445 369.062 125.018C371.469 128.621 375.281 131.043 379.562 131.789C389.406 133.529 397.531 139.928 401.312 148.875C405.062 157.82 404 167.855 398.531 175.746C396.062 179.256 395.156 183.635 395.969 187.83C396.812 192.023 399.312 195.719 402.906 198.08C411.094 203.424 416 212.338 416 221.938C416 231.506 411.188 240.391 403.094 245.701C399.5 248.062 397.031 251.729 396.188 255.922C395.375 260.115 396.281 264.465 398.719 268.006C404.25 275.959 405.344 286.023 401.688 294.814C397.938 303.73 389.969 309.818 379.844 311.59C375.531 312.303 371.719 314.758 369.281 318.361S365.999 326.375 366.938 330.631C369.125 340.664 366.594 350.17 359.969 356.693C353.719 362.906 353.719 372.973 359.938 379.215C366.188 385.428 376.344 385.396 382.594 379.246C393.406 368.498 399.375 353.992 399.656 338.678C413.875 332.557 425.188 321.375 431.219 307.053C437.187 292.732 437.312 276.982 431.906 262.818C442.156 251.822 448 237.283 448 221.938ZM309.75 195.422C309.062 193.203 308.906 190.734 308.656 188.297C307.969 181.672 307.094 173.455 301.875 165.924C296.5 158.27 288.687 154.582 282.969 151.863C280.906 150.895 278.812 150.02 277.125 148.771C275.969 147.896 274.25 145.928 272.594 143.99C268.406 139.178 262.719 132.586 253.844 129.586C245.156 126.648 237.094 128.43 230.687 129.836C225.687 130.898 222.312 130.898 217.312 129.836C210.844 128.43 202.812 126.742 194.125 129.617C185.281 132.586 179.594 139.178 175.406 143.99C173.75 145.928 172.031 147.896 170.812 148.834C169.562 149.77 167.188 150.895 164.875 151.988C159.219 154.645 151.469 158.301 146.063 165.986C140.906 173.455 140.031 181.672 139.344 188.297C139.094 190.734 138.938 193.203 138.281 195.297C137.625 197.326 136.438 199.264 135.313 201.295C132.219 206.889 128 214.543 128 224.012C128 233.447 132.219 241.104 135.312 246.695C136.437 248.727 137.625 250.695 138.25 252.602C138.938 254.82 139.094 257.289 139.344 259.727C140.031 266.35 140.906 274.568 146.125 282.098C151.5 289.754 159.312 293.439 165.031 296.158C167.094 297.127 169.188 298.002 170.875 299.252C172.031 300.127 173.75 302.096 175.406 304.033C179.594 308.844 185.281 315.438 194.156 318.438C197.594 319.594 200.969 320 204.125 320C208.969 320 213.437 319.031 217.312 318.188C222.312 317.125 225.688 317.125 230.688 318.188C237.156 319.594 245.188 321.281 253.875 318.406C262.719 315.438 268.406 308.844 272.594 304.033C274.25 302.096 275.969 300.127 277.188 299.189C278.438 298.252 280.812 297.127 283.125 296.033C288.781 293.377 296.531 289.723 301.938 282.035C307.094 274.568 307.969 266.35 308.656 259.727C308.906 257.32 309.062 254.883 309.75 252.664C310.406 250.633 311.594 248.727 312.688 246.695C315.781 241.104 320 233.447 320 224.012C320 214.543 315.781 206.889 312.688 201.295C311.562 199.264 310.375 197.326 309.75 195.422ZM279.219 243.041C279.219 243.072 279.187 243.104 279.187 243.166C276.836 250.736 276.637 261.791 275.75 263.631C273.75 265.871 265.219 268.125 257.937 273.631C251.529 278.461 246.295 285.955 244.094 287.973C242.656 288.441 239.594 287.379 237.437 286.91C229.5 285.223 218.5 285.223 210.562 286.91C208.344 287.41 205.031 288.129 204.562 288.191C201.918 286.748 197.314 279.104 190.031 273.6C183.713 268.92 173.785 265.365 172.438 263.881C171.234 261.666 171.27 251.1 168.781 243.041C166.385 235.43 160.059 226.385 160 224.012C160 221.578 166.275 212.961 168.812 204.857C171.164 197.287 171.363 186.232 172.25 184.391C174.25 182.152 182.781 179.898 190.062 174.393C196.471 169.562 201.705 162.068 203.906 160.051C204 160.02 204.125 160.02 204.219 160.02C205.562 160.02 208.531 160.676 210.562 161.113C218.5 162.801 229.5 162.801 237.438 161.113C239.656 160.613 242.969 159.895 243.438 159.832C246.082 161.273 250.686 168.92 257.969 174.424C264.287 179.104 274.215 182.658 275.563 184.141C276.766 186.355 276.73 196.924 279.219 204.982C281.678 212.789 288 221.646 288 224.012C287.941 226.385 281.617 235.428 279.219 243.041Z"/></svg>
